archdroid-icon-theme/Archdroid-Lime/animations/scalable/nm-vpn-connecting01.svg

<svg fill="#CDDC39" height="48" viewBox="0 0 48 48" width="48" xmlns="http://www.w3.org/2000/svg"><g fill="#CDDC39"><path d="m24.02 42.98 23.26-28.98c-.9-.68-9.85-8-23.28-8s-22.38 7.32-23.28 8l23.26 28.98.02.02z" fill-opacity=".3"/><path d="m42 32c-2.208 0-3.999653 1.68-4 3.75v2.25h-.285156c-.94949 0-1.714844.742758-1.714844 1.666016v6.666016c0 .923256.765354 1.667968 1.714844 1.667968h8.572266c.949489 0 1.71289-.744712 1.71289-1.667969v-6.666016c0-.923257-.763401-1.666015-1.712891-1.666015h-.287109v-2.25c0-2.07-1.792-3.75-4-3.75zm0 2c1.106667 0 2 .893333 2 2v2h-4v-2c0-1.106667.893333-2 2-2zm-28.66-4.28 10.65 13.27.01.01.01-.01 10.65-13.27c-.53-.41-4.6-3.72-10.66-3.72s-10.13 3.31-10.66 3.72z"/></g></svg>

<svg fill="#CDDC39" height="48" version="1.1" viewBox="0 0 48 48" width="48" xmlns="http://www.w3.org/2000/svg"><path d="M24.02 42.98L47.28 14C46.38 13.32 37.43 6 24 6 10.57 6 1.62 13.32.72 14L23.98 42.98l.02.02.02-.02z" fill="#CDDC39" fill-opacity=".3"/><path d="m42 32c-2.208 0-3.999653 1.68-4 3.75L38 38 37.714844 38C36.765354 38 36 38.742758 36 39.666016l0 6.666016C36 47.255288 36.765354 48 37.714844 48l8.572266 0C47.236599 48 48 47.255288 48 46.332031l0-6.666016C48 38.742758 47.236599 38 46.287109 38L46 38 46 35.75C46 33.68 44.208 32 42 32Zm0 2c1.106667 0 2 .893333 2 2l0 2-4 0 0-2c0-1.106667.893333-2 2-2zM13.34 29.72L23.99 42.99 24 43 24.01 42.99 34.66 29.72C34.13 29.31 30.06 26 24 26 17.94 26 13.87 29.31 13.34 29.72Z" fill="#CDDC39"/></svg>
